X: 39047
T: Sward House
R: jig
M: 6/8
K: Gmajor
c|:B/c/dB GBd|gfg dBG|cec BdB|ABG FED|
B/c/dB GBd|gfg dBG|AFD Ddc|1 BcA G2c:|2 BcA G2d||
|:dBd ege|fag fed|gfg dBG|ABG AFD|
EGc FAd|eaf gfe|dBG Ddc|1 BcA G2d:|2 BcA G2c||

